X:2

T:Deil Amang the Tailors, The

M:C

L:1/8

R:Reel

S:Surenne – Dance Music of Scotland, pg. 28  (1852)

Z:AK/Fiddler’s Companion

K:A

a2 eg a2 eg | a2 ea fedc | dfBf dfBf | dfBa gabg | a2 eg a2 eg | a2 ea fedc |

defd ecBA | E2G2A3 || e | ceAe ceAe | ceag fedc | dfBf dfBf | dfba gfed |

ceAe ceAe | ceag fedc | defd ecBA | E2G2 A3 z ||

 

DEVIL AMONG THE TAILORS [2], THE. Closely related to "Devil's Dream." Old‑Time, Breakdown. USA; Arkansas, Missouri. A Major. Standard tuning. AABB. The title appears in a list of traditional tunes played by Ozark Mountains fiddlers compiled by musicologist/folklorist Vance Randolph, published in 1954.  Source for notated version: Sam Eads (Dixon, Missouri) [Christeson]. R.P. Christeson (Old Time Fiddler’s Repertory, vol. 2), 1984; pg. 3. Ford (Traditional Music in America), 1940; pg. 79.

           

DEVIL AMONG THE TAILORS [3], THE.  English, Jig. A Major. Standard tuning. AABABA. The melody appears under this title in Charles and Samuel Thompson’s Compleat Collection of 200 Favourite Country Dances, vol. 3 (London, 1773, No. 95). It also appears (as do many of the tunes in the Thompson’s 1773 collection) in the 1788 commonplace book of fiddlers John and William Pitt Turner (Norwich, Conn.). Barnes (English Country Dance Tunes, vol. 2), 2005; pg. 30.

